symbols/web/phonelink_ring/materialsymbolsoutlined/phonelink_ring_wght300_24px.svg

<svg xmlns="http://www.w3.org/2000/svg" height="24" width="24"><path d="m20.325 16.95-1.05-1.05q.775-.775 1.187-1.775.413-1 .413-2.125t-.413-2.125q-.412-1-1.187-1.775l1.05-1.05q1 .975 1.525 2.262.525 1.288.525 2.688 0 1.4-.525 2.688-.525 1.287-1.525 2.262Zm-2.3-2.3-1.075-1.075q.325-.3.538-.713.212-.412.212-.862t-.212-.863q-.213-.412-.538-.712l1.075-1.075q.55.525.863 1.212.312.688.312 1.438t-.312 1.438q-.313.687-.863 1.212ZM7.3 22.5q-.75 0-1.275-.525Q5.5 21.45 5.5 20.7V3.3q0-.75.525-1.275Q6.55 1.5 7.3 1.5h9.4q.75 0 1.275.525.525.525.525 1.275v3.65H17v-1.2H7v12.5h10v-1.2h1.5v3.65q0 .75-.525 1.275-.525.525-1.275.525ZM7 19.75v.95q0 .1.1.2t.2.1h9.4q.1 0 .2-.1t.1-.2v-.95Zm0-15.5h10V3.3q0-.1-.1-.2t-.2-.1H7.3q-.1 0-.2.1t-.1.2ZM7 3v1.25V3Zm0 18v-1.25V21Z"/></svg>

<svg xmlns="http://www.w3.org/2000/svg" height="24" width="24"><path d="M20.325 16.95 19.275 15.9Q20.05 15.125 20.462 14.125Q20.875 13.125 20.875 12Q20.875 10.875 20.462 9.875Q20.05 8.875 19.275 8.1L20.325 7.05Q21.325 8.025 21.85 9.312Q22.375 10.6 22.375 12Q22.375 13.4 21.85 14.688Q21.325 15.975 20.325 16.95ZM18.025 14.65 16.95 13.575Q17.275 13.275 17.488 12.862Q17.7 12.45 17.7 12Q17.7 11.55 17.488 11.137Q17.275 10.725 16.95 10.425L18.025 9.35Q18.575 9.875 18.888 10.562Q19.2 11.25 19.2 12Q19.2 12.75 18.888 13.438Q18.575 14.125 18.025 14.65ZM7.3 22.5Q6.55 22.5 6.025 21.975Q5.5 21.45 5.5 20.7V3.3Q5.5 2.55 6.025 2.025Q6.55 1.5 7.3 1.5H16.7Q17.45 1.5 17.975 2.025Q18.5 2.55 18.5 3.3V6.95H17V5.75H7V18.25H17V17.05H18.5V20.7Q18.5 21.45 17.975 21.975Q17.45 22.5 16.7 22.5ZM7 19.75V20.7Q7 20.8 7.1 20.9Q7.2 21 7.3 21H16.7Q16.8 21 16.9 20.9Q17 20.8 17 20.7V19.75ZM7 4.25H17V3.3Q17 3.2 16.9 3.1Q16.8 3 16.7 3H7.3Q7.2 3 7.1 3.1Q7 3.2 7 3.3ZM7 3Q7 3 7 3.087Q7 3.175 7 3.3V4.25V3.3Q7 3.175 7 3.087Q7 3 7 3ZM7 21Q7 21 7 20.913Q7 20.825 7 20.7V19.75V20.7Q7 20.825 7 20.913Q7 21 7 21Z"/></svg>
